X: 5
T: The Fairy Dance
R: reel
M: 4/4
L: 1/8
K: Dmaj
a2af b4 | g2ge a3a | ffff gggg | edef d4 | aaaf bb2b | ggge A4 | f2f2 g2g2 | edef d4 ||


Tune 424	Setting 26537

